icons/ocaml/ocaml-plain.svg

<?xml version="1.0" encoding="UTF-8"?>
<svg xmlns="http://www.w3.org/2000/svg" xmlns:xlink="http://www.w3.org/1999/xlink" width="128px" height="128px" viewBox="0 0 128 128" version="1.1">
<g id="surface1">
<path style=" stroke:none;fill-rule:nonzero;fill:rgb(0%,0%,0%);fill-opacity:1;" d="M 65.003906 115.355469 C 64.542969 114.460938 64 112.558594 63.648438 111.753906 C 63.269531 111.042969 62.1875 109.0625 61.664062 108.421875 C 60.5 107.089844 60.226562 106.984375 59.855469 105.191406 C 59.226562 102.125 57.707031 96.730469 55.8125 92.964844 C 54.808594 90.964844 53.1875 89.359375 51.746094 87.894531 C 50.5 86.648438 47.625 84.585938 47.078125 84.667969 C 42.3125 85.5625 40.851562 90.253906 38.621094 93.9375 C 37.351562 96 36.105469 97.707031 35.101562 99.875 C 34.203125 101.855469 34.289062 104.105469 32.769531 105.8125 C 31.242188 107.496094 30.101562 109.496094 29.4375 111.667969 C 29.242188 112.121094 28.890625 116.625 28.433594 117.683594 L 35.453125 117.246094 C 42.039062 117.707031 40.140625 120.207031 50.3125 119.683594 L 66.410156 119.144531 C 66.039062 117.851562 65.558594 116.578125 64.976562 115.351562 Z M 111.792969 8.253906 L 16.207031 8.253906 C 7.3125 8.230469 0.0859375 15.457031 0.0859375 24.351562 L 0.0859375 59.457031 C 2.4375 58.644531 5.664062 53.707031 6.753906 52.523438 C 8.542969 50.460938 8.914062 47.753906 9.8125 46.144531 C 11.875 42.351562 12.246094 39.667969 16.914062 39.667969 C 19.078125 39.667969 19.976562 40.183594 21.414062 42.183594 C 22.410156 43.515625 24.203125 46.140625 25.015625 47.851562 C 26.019531 49.832031 27.539062 52.433594 28.269531 52.976562 C 28.785156 53.328125 29.242188 53.699219 29.703125 53.871094 C 30.410156 54.140625 31.058594 53.601562 31.605469 53.242188 C 32.226562 52.703125 32.5 51.722656 33.125 50.289062 C 34.019531 48.203125 34.9375 45.871094 35.457031 44.976562 C 36.371094 43.515625 36.730469 41.722656 37.707031 40.910156 C 39.167969 39.664062 41.148438 39.554688 41.664062 39.472656 C 44.644531 38.847656 46 40.910156 47.441406 42.179688 C 48.414062 43.074219 49.683594 44.785156 50.6875 47.03125 C 51.394531 48.824219 52.292969 50.550781 52.753906 51.53125 C 53.105469 52.511719 54.019531 54.136719 54.542969 56.113281 C 55.085938 57.824219 56.351562 59.179688 56.894531 60.074219 C 56.894531 60.074219 57.707031 62.238281 62.371094 64.21875 C 63.792969 64.824219 65.222656 65.324219 66.707031 65.738281 C 68.773438 66.472656 70.753906 66.382812 73.269531 66.113281 C 75.058594 66.113281 76.0625 63.488281 76.871094 61.429688 C 77.308594 60.175781 77.851562 56.65625 78.121094 55.671875 C 78.390625 54.675781 77.683594 53.964844 78.3125 53.046875 C 79.035156 52.070312 79.476562 51.964844 79.832031 50.714844 C 80.746094 47.921875 85.789062 47.839844 88.664062 47.839844 C 91.078125 47.839844 90.726562 50.171875 94.789062 49.359375 C 97.125 48.925781 99.375 49.632812 101.8125 50.355469 C 103.875 50.898438 105.855469 51.523438 107.015625 52.878906 C 107.746094 53.777344 109.644531 58.191406 107.746094 58.355469 C 107.910156 58.542969 108.105469 59 108.371094 59.171875 C 107.910156 60.878906 106.121094 59.632812 105.039062 59.441406 C 103.683594 59.171875 102.707031 59.441406 101.355469 60.066406 C 99.019531 61.0625 95.6875 60.984375 93.628906 62.691406 C 91.914062 64.128906 91.914062 67.273438 91.085938 69.0625 C 91.085938 69.0625 88.832031 74.757812 84.089844 78.253906 C 82.8125 79.167969 80.375 81.3125 75.171875 82.125 C 72.816406 82.480469 70.585938 82.480469 68.148438 82.394531 C 66.984375 82.316406 65.816406 82.316406 64.628906 82.316406 C 63.921875 82.316406 61.566406 82.207031 61.667969 82.480469 L 61.398438 83.125 C 61.421875 83.414062 61.460938 83.726562 61.5625 84.019531 C 61.664062 84.535156 61.664062 84.996094 61.753906 85.457031 C 61.753906 86.4375 61.667969 87.519531 61.753906 88.523438 C 61.835938 90.585938 62.648438 92.480469 62.757812 94.625 C 62.835938 96.980469 64.003906 99.5 65.171875 101.394531 C 65.632812 102.101562 66.257812 102.183594 66.527344 103.105469 C 66.878906 104.085938 66.527344 105.246094 66.714844 106.332031 C 67.339844 110.558594 68.589844 115.0625 70.488281 118.941406 L 70.488281 119.019531 C 72.820312 118.667969 75.257812 117.773438 78.324219 117.335938 C 83.988281 116.503906 91.824219 116.875 96.863281 116.421875 C 109.660156 115.253906 116.570312 121.648438 128.011719 119.023438 L 128.011719 24.335938 C 127.949219 15.441406 120.71875 8.234375 111.804688 8.234375 Z M 64.085938 83.855469 C 64.085938 83.667969 64.085938 83.667969 64.085938 83.855469 Z M 29.628906 98.605469 C 30.523438 96.625 31.0625 94.480469 31.773438 92.503906 C 32.503906 90.605469 33.585938 87.894531 35.457031 86.921875 C 35.210938 86.648438 31.5 86.546875 30.523438 86.460938 C 29.441406 86.375 28.351562 86.1875 27.273438 86.023438 C 25.226562 85.652344 23.191406 85.226562 21.148438 84.757812 C 19.980469 84.484375 15.9375 83.042969 15.128906 82.691406 C 13.042969 81.796875 11.707031 79.171875 10.167969 79.445312 C 9.191406 79.632812 8.1875 79.984375 7.5625 80.984375 C 7.019531 81.796875 6.832031 83.226562 6.480469 84.210938 C 6.042969 85.296875 5.3125 86.375 4.773438 87.460938 C 3.496094 89.335938 1.441406 91.042969 0.542969 92.945312 C 0.351562 93.402344 0.273438 93.839844 0.0859375 94.300781 L 0.0859375 115.984375 C 1.167969 116.171875 2.246094 116.355469 3.414062 116.714844 C 12.410156 119.152344 14.578125 119.320312 23.394531 118.34375 L 24.207031 118.234375 C 24.832031 116.796875 25.394531 112.027344 25.835938 110.589844 C 26.1875 109.425781 26.648438 108.527344 26.832031 107.449219 C 26.996094 106.359375 26.832031 105.277344 26.730469 104.300781 C 26.558594 101.671875 28.625 100.78125 29.628906 98.609375 Z M 29.628906 98.605469 "/>
</g>
</svg>

<svg xmlns="http://www.w3.org/2000/svg" viewBox="0 0 128 128"><path d="M65.004 115.355c-.461-.894-1.004-2.796-1.356-3.601-.378-.711-1.46-2.692-1.984-3.332-1.164-1.332-1.437-1.438-1.809-3.23-.628-3.067-2.148-8.462-4.042-12.227-1.004-2-2.626-3.606-4.067-5.07-1.246-1.247-4.121-3.31-4.668-3.227-4.766.894-6.226 5.586-8.457 9.27-1.27 2.062-2.516 3.769-3.52 5.937-.898 1.98-.812 4.23-2.331 5.938a15.44 15.44 0 00-3.333 5.855c-.195.453-.546 4.957-1.003 6.016l7.02-.438c6.585.461 4.687 2.961 14.858 2.438l16.098-.54a24.864 24.864 0 00-1.433-3.792zM111.793 8.254H16.207C7.312 8.23.086 15.457.086 24.352v35.105c2.352-.812 5.578-5.75 6.668-6.934 1.789-2.062 2.16-4.77 3.059-6.378 2.062-3.793 2.433-6.477 7.101-6.477 2.164 0 3.063.516 4.5 2.516.996 1.332 2.79 3.957 3.602 5.668 1.004 1.98 2.523 4.582 3.254 5.125.515.351.972.722 1.433.894.707.27 1.356-.27 1.902-.629.622-.539.895-1.52 1.52-2.953.895-2.086 1.813-4.418 2.332-5.312.914-1.461 1.273-3.254 2.25-4.067 1.461-1.246 3.441-1.355 3.957-1.437 2.98-.625 4.336 1.437 5.777 2.707.973.894 2.243 2.605 3.246 4.851.708 1.793 1.606 3.52 2.067 4.5.351.98 1.266 2.606 1.789 4.582.543 1.711 1.809 3.067 2.352 3.961 0 0 .812 2.164 5.476 4.145a34.992 34.992 0 004.336 1.52c2.066.734 4.047.644 6.563.374 1.789 0 2.793-2.625 3.601-4.683.438-1.254.98-4.774 1.25-5.758.27-.996-.437-1.707.192-2.625.722-.977 1.164-1.082 1.519-2.332.914-2.793 5.957-2.875 8.832-2.875 2.414 0 2.063 2.332 6.125 1.52 2.336-.434 4.586.273 7.023.995 2.063.543 4.043 1.168 5.204 2.524.73.898 2.629 5.312.73 5.476.164.188.36.645.625.817-.46 1.707-2.25.46-3.332.27-1.355-.27-2.332 0-3.684.624-2.335.996-5.668.918-7.726 2.625-1.715 1.438-1.715 4.582-2.543 6.371 0 0-2.254 5.696-6.996 9.192-1.278.914-3.715 3.058-8.918 3.871-2.356.355-4.586.355-7.024.27-1.164-.079-2.332-.079-3.52-.079-.706 0-3.062-.109-2.96.164l-.27.645c.024.29.063.602.164.895.102.515.102.976.192 1.437 0 .98-.086 2.063 0 3.066.082 2.063.894 3.957 1.004 6.102.078 2.355 1.246 4.875 2.414 6.77.46.707 1.086.789 1.355 1.71.352.98 0 2.141.188 3.227.625 4.227 1.875 8.73 3.773 12.61v.078c2.332-.352 4.77-1.247 7.836-1.684 5.664-.832 13.5-.461 18.54-.914 12.796-1.168 19.706 5.226 31.148 2.601V24.336c-.063-8.895-7.293-16.102-16.207-16.102zM64.086 83.855c0-.187 0-.187 0 0zm-34.457 14.75c.894-1.98 1.433-4.125 2.144-6.101.73-1.899 1.813-4.61 3.684-5.582-.246-.274-3.957-.375-4.934-.461-1.082-.086-2.171-.273-3.25-.438a135.241 135.241 0 01-6.125-1.265c-1.168-.274-5.21-1.715-6.02-2.067-2.085-.894-3.421-3.52-4.96-3.246-.977.188-1.98.54-2.605 1.54-.543.812-.731 2.242-1.083 3.226-.437 1.086-1.168 2.164-1.707 3.25-1.277 1.875-3.332 3.582-4.23 5.484-.191.457-.27.895-.457 1.356v21.683c1.082.188 2.16.371 3.328.73 8.996 2.438 11.164 2.606 19.98 1.63l.813-.11c.625-1.437 1.188-6.207 1.629-7.644.352-1.164.812-2.063.996-3.14.164-1.09 0-2.173-.102-3.15-.171-2.628 1.895-3.519 2.899-5.69zm0 0"/></svg>
